svgs/bukvoed.svg

<?xml version="1.0" encoding="UTF-8" standalone="no"?>
<!-- Created with Inkscape (http://www.inkscape.org/) -->

<svg
   width="192"
   height="192"
   viewBox="0 0 192 192"
   version="1.1"
   xml:space="preserve"
   xmlns="http://www.w3.org/2000/svg"
   xmlns:svg="http://www.w3.org/2000/svg">
  <path
       style="fill:none;stroke:#000000;stroke-width:12;stroke-linecap:round;stroke-linejoin:round;stroke-dasharray:none;stroke-opacity:1"
       d="M 78.039085,161.32273 92.389172,170.00012 C 92.389172,170.00012 111.40239,155.91449 119.61551,147.48218 128.50244,138.35806 137.22052,128.66311 143.16884,117.41933 147.96797,108.34781 151.61034,98.314313 152.50762,88.101393 153.53336,76.426282 152.55671,63.988722 147.83823,53.250863 144.29508,45.187705 137.93611,38.267585 130.91167,32.921389 124.94019,28.376583 117.75678,25.084431 110.38293,23.627915 99.161082,21.411324 86.921553,21.183505 76.081703,24.824833 66.715411,27.971162 58.23075,34.341243 51.876924,41.877637 45.849474,49.026906 41.489783,58.001126 39.858493,67.191075 38.227122,76.381477 39.417414,86.235114 42.434956,95.071493 44.730472,101.79355 48.884268,107.99624 53.866675,113.0776 57.785931,117.0747 62.643379,120.34988 67.874857,122.37108 72.645927,124.2144 77.944918,124.33793 83.050387,124.69445 85.432409,124.86078 90.213462,124.60506 90.213462,124.60506 90.213462,124.60506 90.043312,131.92711 89.284843,135.48907 88.477643,139.2799 86.974344,142.9028 85.467183,146.47577 83.316918,151.57331 78.039085,161.32273 78.039085,161.32273 Z" />
</svg>

<svg xmlns="http://www.w3.org/2000/svg" xml:space="preserve" width="192" height="192" viewBox="0 0 192 192"><path d="M78.04 161.323 92.39 170s19.012-14.086 27.226-22.518c8.886-9.124 17.605-18.819 23.553-30.063 4.799-9.071 8.441-19.105 9.339-29.318 1.025-11.675.049-24.112-4.67-34.85-3.543-8.063-9.902-14.983-16.926-20.33-5.972-4.544-13.155-7.837-20.53-9.293-11.22-2.217-23.46-2.444-34.3 1.197-9.367 3.146-17.851 9.516-24.205 17.053C45.849 49.027 41.49 58 39.858 67.19c-1.63 9.19-.44 19.044 2.577 27.88 2.295 6.723 6.45 12.925 11.432 18.007 3.919 3.997 8.776 7.272 14.008 9.293 4.77 1.843 10.07 1.967 15.175 2.323 2.382.167 7.163-.089 7.163-.089s-.17 7.322-.928 10.884c-.807 3.79-2.31 7.414-3.818 10.987-2.15 5.097-7.428 14.847-7.428 14.847" style="fill:none;stroke:#000;stroke-width:12;stroke-linecap:round;stroke-linejoin:round;stroke-dasharray:none;stroke-opacity:1"/></svg>
